X: 39660
T: Ten Million Gems
R: jig
M: 6/8
K: Amixolydian
|:{^g}a2 =g edc|def ecA|~B3 GB/c/d|gfe def|
gab afd|gdB GBd|FAd eAG|BEc ~A3:|
|:GBd ~c2 A|GBd eAG|Bdc ABc|def ecA|
GBd ~c2 A|GBd efe|fdB gdB|ABA A3:|

